packages/smooth_app/assets/onboarding/preferences.svg

<svg width="216" height="165" viewBox="0 0 216 165" fill="none" xmlns="http://www.w3.org/2000/svg">
    <path opacity="0.15" d="M212.503 34.4142H3.05618C1.36849 34.4142 0 33.0534 0 31.3753C0 29.6972 1.36849 28.3364 3.05618 28.3364H212.503C214.19 28.3364 215.559 29.6972 215.559 31.3753C215.559 33.0534 214.19 34.4142 212.503 34.4142Z" fill="black"/>
    <path opacity="0.15" d="M212.503 85.3321H3.05618C1.36849 85.3321 0 83.9714 0 82.2933C0 80.6151 1.36849 79.2544 3.05618 79.2544H212.503C214.19 79.2544 215.559 80.6151 215.559 82.2933C215.559 83.9714 214.19 85.3321 212.503 85.3321Z" fill="black"/>
    <path opacity="0.15" d="M212.503 136.25H3.05618C1.36849 136.25 0 134.889 0 133.211C0 131.533 1.36849 130.172 3.05618 130.172H212.503C214.19 130.172 215.559 131.533 215.559 133.211C215.559 134.889 214.19 136.25 212.503 136.25Z" fill="black"/>
    <path d="M51.9723 60.866C68.836 60.866 82.5067 47.2407 82.5067 30.433C82.5067 13.6253 68.836 0 51.9723 0C35.1087 0 21.438 13.6253 21.438 30.433C21.438 47.2407 35.1087 60.866 51.9723 60.866Z" fill="#505050"/>
    <path d="M48.0045 32.9154L34.4671 29.7145L33.4204 17.4202L46.9578 20.6211L48.0045 32.9154Z" fill="white"/>
    <path d="M46.9578 20.6165L33.4204 17.4179L41.167 10L54.7044 13.1986L46.9578 20.6165Z" fill="#E2E2E2"/>
    <path d="M55.7513 25.4953L48.0047 32.9155L46.958 20.6211L54.7046 13.1987L55.7513 25.4953Z" fill="#C4C4C4"/>
    <path d="M62.9608 41.7377L50.5581 35.4637L52.4463 23.2681L64.849 29.542L62.9608 41.7377Z" fill="white"/>
    <path d="M64.8514 29.5373L52.4487 23.2634L61.7316 17.8643L74.1343 24.1382L64.8514 29.5373Z" fill="#E2E2E2"/>
    <path d="M72.2438 36.3339L62.9609 41.7375L64.8491 29.5418L74.1342 24.1382L72.2438 36.3339Z" fill="#C4C4C4"/>
    <path d="M50.1592 48.6597L36.6421 45.3758L35.6743 33.0747L49.1914 36.3586L50.1592 48.6597Z" fill="white"/>
    <path d="M49.1914 36.3541L35.6743 33.0702L43.4683 25.7017L56.9854 28.9855L49.1914 36.3541Z" fill="#E2E2E2"/>
    <path d="M57.9532 41.2867L50.1592 48.6597L49.1914 36.3586L56.9854 28.9856L57.9532 41.2867Z" fill="#C4C4C4"/>
    <path d="M162.955 111.866C179.818 111.866 193.489 98.2407 193.489 81.433C193.489 64.6253 179.818 51 162.955 51C146.091 51 132.42 64.6253 132.42 81.433C132.42 98.2407 146.091 111.866 162.955 111.866Z" fill="#505050"/>
    <path d="M140.413 70.2009L151.692 58.9856C153.108 57.5777 155.438 57.6931 156.705 59.2359L173.488 79.6754L161.22 91.8743L140.664 75.1862C139.113 73.9263 138.994 71.611 140.413 70.2009Z" fill="#AFFAFF"/>
    <path d="M176.243 94.6151C172.869 97.9695 167.391 97.9695 164.018 94.6151L162.272 92.8795L174.496 80.7253L176.241 82.461C179.615 85.8153 179.615 91.2623 176.241 94.6166L176.243 94.6151Z" fill="#A29F9F"/>
    <path d="M162.014 93.1765L174.795 80.4684C175.09 80.1744 175.09 79.6977 174.795 79.4036C174.499 79.1096 174.02 79.1096 173.724 79.4036L160.943 92.1117C160.648 92.4057 160.648 92.8824 160.943 93.1765C161.239 93.4705 161.719 93.4705 162.014 93.1765Z" fill="#A29F9F"/>
    <path d="M171.493 95.2298C171.817 95.2298 172.079 94.9687 172.079 94.6467C172.079 94.3246 171.817 94.0635 171.493 94.0635C171.169 94.0635 170.906 94.3246 170.906 94.6467C170.906 94.9687 171.169 95.2298 171.493 95.2298Z" fill="#4D4D4D"/>
    <path d="M171.064 92.4271C171.387 92.4271 171.65 92.166 171.65 91.8439C171.65 91.5218 171.387 91.2607 171.064 91.2607C170.74 91.2607 170.477 91.5218 170.477 91.8439C170.477 92.166 170.74 92.4271 171.064 92.4271Z" fill="#4D4D4D"/>
    <path d="M176.274 90.475C176.598 90.475 176.86 90.2139 176.86 89.8918C176.86 89.5697 176.598 89.3086 176.274 89.3086C175.95 89.3086 175.688 89.5697 175.688 89.8918C175.688 90.2139 175.95 90.475 176.274 90.475Z" fill="#4D4D4D"/>
    <path d="M173.884 92.8512C174.208 92.8512 174.471 92.5901 174.471 92.268C174.471 91.9459 174.208 91.6848 173.884 91.6848C173.56 91.6848 173.298 91.9459 173.298 92.268C173.298 92.5901 173.56 92.8512 173.884 92.8512Z" fill="#4D4D4D"/>
    <path d="M175.591 98.6967C175.864 98.8709 176.226 98.7919 176.399 98.5203C176.572 98.2488 176.491 97.8874 176.218 97.7133C175.945 97.5391 175.583 97.6181 175.41 97.8897C175.237 98.1612 175.318 98.5226 175.591 98.6967Z" fill="white"/>
    <path d="M179.161 98.2997C179.434 98.4739 179.796 98.3949 179.969 98.1234C180.143 97.8518 180.062 97.4905 179.788 97.3163C179.515 97.1422 179.154 97.2211 178.98 97.4927C178.807 97.7643 178.888 98.1256 179.161 98.2997Z" fill="white"/>
    <path d="M177.327 101.177C177.6 101.351 177.962 101.272 178.135 101C178.308 100.729 178.227 100.367 177.954 100.193C177.681 100.019 177.319 100.098 177.146 100.37C176.973 100.641 177.054 101.003 177.327 101.177Z" fill="white"/>
    <path d="M176.915 105.299C177.188 105.473 177.55 105.394 177.723 105.122C177.896 104.851 177.815 104.49 177.542 104.315C177.269 104.141 176.907 104.22 176.734 104.492C176.561 104.763 176.642 105.125 176.915 105.299Z" fill="white"/>
    <path d="M172.846 99.3515C173.119 99.5257 173.481 99.4467 173.654 99.1751C173.827 98.9036 173.746 98.5422 173.473 98.3681C173.2 98.1939 172.838 98.2729 172.665 98.5444C172.492 98.816 172.573 99.1773 172.846 99.3515Z" fill="white"/>
    <path d="M177.117 96.3041C177.39 96.4783 177.752 96.3993 177.925 96.1278C178.098 95.8562 178.017 95.4949 177.744 95.3207C177.471 95.1466 177.109 95.2255 176.936 95.4971C176.763 95.7686 176.844 96.13 177.117 96.3041Z" fill="white"/>
    <path d="M179.165 103.04C179.438 103.215 179.8 103.136 179.973 102.864C180.146 102.593 180.065 102.231 179.792 102.057C179.519 101.883 179.157 101.962 178.984 102.233C178.811 102.505 178.892 102.866 179.165 103.04Z" fill="white"/>
    <path d="M173.803 102.592C174.076 102.766 174.438 102.687 174.611 102.415C174.784 102.144 174.703 101.782 174.43 101.608C174.157 101.434 173.795 101.513 173.622 101.785C173.449 102.056 173.53 102.418 173.803 102.592Z" fill="white"/>
    <path d="M173.456 90.0487C173.78 90.0487 174.042 89.7876 174.042 89.4655C174.042 89.1434 173.78 88.8823 173.456 88.8823C173.132 88.8823 172.869 89.1434 172.869 89.4655C172.869 89.7876 173.132 90.0487 173.456 90.0487Z" fill="#4D4D4D"/>
    <path d="M175.847 87.6725C176.171 87.6725 176.434 87.4114 176.434 87.0893C176.434 86.7672 176.171 86.5061 175.847 86.5061C175.523 86.5061 175.261 86.7672 175.261 87.0893C175.261 87.4114 175.523 87.6725 175.847 87.6725Z" fill="#4D4D4D"/>
    <path d="M168.674 94.8053C168.998 94.8053 169.26 94.5442 169.26 94.2221C169.26 93.9 168.998 93.6389 168.674 93.6389C168.35 93.6389 168.087 93.9 168.087 94.2221C168.087 94.5442 168.35 94.8053 168.674 94.8053Z" fill="#4D4D4D"/>
    <path d="M84.9548 162.866C101.818 162.866 115.489 149.241 115.489 132.433C115.489 115.625 101.818 102 84.9548 102C68.0911 102 54.4204 115.625 54.4204 132.433C54.4204 149.241 68.0911 162.866 84.9548 162.866Z" fill="#505050"/>
    <path d="M99.4072 136.124C99.4072 144.084 92.9172 150.535 84.9138 150.535C76.9104 150.535 70.4204 144.082 70.4204 136.124C70.4204 127.032 80.094 117.627 83.6357 114.487C84.3649 113.84 85.4653 113.837 86.1998 114.482C89.7467 117.601 99.4099 126.941 99.4099 136.124H99.4072Z" fill="#FFD250"/>
    <path d="M93.9914 131.812C93.6255 131.812 93.2752 131.601 93.1184 131.248C92.2898 129.405 91.0117 127.458 89.3206 125.462C88.9808 125.06 89.0331 124.462 89.4356 124.121C89.8407 123.783 90.4419 123.835 90.7843 124.236C92.5904 126.367 93.9627 128.467 94.8644 130.471C95.0787 130.951 94.8644 131.513 94.3809 131.726C94.2554 131.783 94.1221 131.809 93.9914 131.809V131.812Z" fill="white"/>
    <path d="M93.4473 142.192C93.2304 142.192 93.0108 142.12 92.8305 141.969C92.4254 141.631 92.3757 141.031 92.7155 140.628C93.6512 139.523 94.0747 137.706 94.1505 137.155C94.221 136.636 94.702 136.269 95.2273 136.342C95.7501 136.412 96.1186 136.893 96.0454 137.413C95.92 138.335 95.3685 140.451 94.1792 141.854C93.991 142.078 93.7192 142.192 93.4473 142.192Z" fill="white"/>
</svg>

<svg width="216" height="165" fill="none" xmlns="http://www.w3.org/2000/svg"><path opacity=".15" d="M212.503 34.414H3.056A3.048 3.048 0 0 1 0 31.375a3.048 3.048 0 0 1 3.056-3.039h209.447a3.048 3.048 0 0 1 3.056 3.04 3.048 3.048 0 0 1-3.056 3.038ZM212.503 85.332H3.056A3.048 3.048 0 0 1 0 82.293a3.048 3.048 0 0 1 3.056-3.039h209.447a3.048 3.048 0 0 1 3.056 3.04 3.048 3.048 0 0 1-3.056 3.038ZM212.503 136.25H3.056A3.048 3.048 0 0 1 0 133.211a3.048 3.048 0 0 1 3.056-3.039h209.447a3.048 3.048 0 0 1 3.056 3.039 3.048 3.048 0 0 1-3.056 3.039Z" fill="#000"/><path d="M51.972 60.866c16.864 0 30.535-13.625 30.535-30.433S68.836 0 51.972 0C35.11 0 21.438 13.625 21.438 30.433s13.67 30.433 30.534 30.433Z" fill="#505050"/><path d="m48.005 32.915-13.538-3.2L33.42 17.42l13.538 3.201 1.047 12.294Z" fill="#fff"/><path d="M46.958 20.616 33.42 17.418 41.167 10l13.537 3.199-7.746 7.417Z" fill="#E2E2E2"/><path d="m55.751 25.495-7.746 7.42-1.047-12.294 7.747-7.422 1.046 12.296Z" fill="#C4C4C4"/><path d="m62.96 41.738-12.402-6.274 1.888-12.196 12.403 6.274-1.888 12.196Z" fill="#fff"/><path d="M64.851 29.537 52.45 23.263l9.283-5.399 12.402 6.274-9.283 5.4Z" fill="#E2E2E2"/><path d="m72.244 36.334-9.283 5.403 1.888-12.195 9.285-5.404-1.89 12.196Z" fill="#C4C4C4"/><path d="m50.16 48.66-13.518-3.284-.968-12.301 13.517 3.284.968 12.3Z" fill="#fff"/><path d="M49.191 36.354 35.674 33.07l7.794-7.368 13.517 3.283-7.794 7.37Z" fill="#E2E2E2"/><path d="M57.953 41.287 50.16 48.66l-.968-12.301 7.794-7.373.968 12.3Z" fill="#C4C4C4"/><path d="M162.955 111.866c16.863 0 30.534-13.625 30.534-30.433S179.818 51 162.955 51c-16.864 0-30.535 13.625-30.535 30.433s13.671 30.433 30.535 30.433Z" fill="#505050"/><path d="m140.413 70.2 11.279-11.214a3.396 3.396 0 0 1 5.013.25l16.783 20.44-12.268 12.198-20.556-16.688a3.35 3.35 0 0 1-.251-4.985Z" fill="#AFFAFF"/><path d="M176.243 94.615c-3.374 3.355-8.852 3.355-12.225 0l-1.746-1.736 12.224-12.154 1.745 1.736a8.564 8.564 0 0 1 0 12.156l.002-.002Z" fill="#A29F9F"/><path d="m162.014 93.177 12.781-12.709a.751.751 0 0 0 0-1.064.76.76 0 0 0-1.071 0l-12.781 12.708a.751.751 0 0 0 0 1.065.76.76 0 0 0 1.071 0Z" fill="#A29F9F"/><path d="M171.493 95.23a.584.584 0 1 0 0-1.166.585.585 0 0 0-.587.583c0 .322.263.583.587.583ZM171.064 92.427a.585.585 0 0 0 .586-.583.585.585 0 0 0-.586-.583.585.585 0 0 0-.587.583c0 .322.263.583.587.583ZM176.274 90.475a.584.584 0 1 0 0-1.166.584.584 0 1 0 0 1.166ZM173.884 92.851a.585.585 0 0 0 .587-.583.585.585 0 0 0-.587-.583.584.584 0 1 0 0 1.166Z" fill="#4D4D4D"/><path d="M175.591 98.697a.585.585 0 0 0 .808-.177.585.585 0 0 0-.181-.807.585.585 0 0 0-.808.177.585.585 0 0 0 .181.807ZM179.161 98.3a.583.583 0 1 0 .627-.983.585.585 0 0 0-.808.176.585.585 0 0 0 .181.807ZM177.327 101.177a.585.585 0 0 0 .808-.177.585.585 0 0 0-.181-.807.585.585 0 0 0-.808.177.585.585 0 0 0 .181.807ZM176.915 105.299a.585.585 0 0 0 .808-.177.585.585 0 0 0-.989-.63.585.585 0 0 0 .181.807ZM172.846 99.352a.585.585 0 0 0 .808-.177.585.585 0 0 0-.181-.807.585.585 0 0 0-.808.176.585.585 0 0 0 .181.808ZM177.117 96.304a.585.585 0 0 0 .808-.176.585.585 0 0 0-.181-.807.585.585 0 0 0-.808.176.585.585 0 0 0 .181.807ZM179.165 103.04a.584.584 0 1 0 .627-.983.585.585 0 0 0-.808.176.585.585 0 0 0 .181.807ZM173.803 102.592a.585.585 0 0 0 .808-.177.585.585 0 0 0-.181-.807.585.585 0 0 0-.808.177.585.585 0 0 0 .181.807Z" fill="#fff"/><path d="M173.456 90.049a.584.584 0 1 0 0-1.167.585.585 0 0 0-.587.584c0 .322.263.583.587.583ZM175.847 87.672a.585.585 0 0 0 .587-.583.585.585 0 0 0-.587-.583.584.584 0 1 0 0 1.166ZM168.674 94.805a.584.584 0 1 0 0-1.166.585.585 0 0 0-.587.583c0 .322.263.583.587.583Z" fill="#4D4D4D"/><path d="M84.955 162.866c16.863 0 30.534-13.625 30.534-30.433S101.818 102 84.955 102c-16.864 0-30.535 13.625-30.535 30.433s13.671 30.433 30.535 30.433Z" fill="#505050"/><path d="M99.407 136.124c0 7.96-6.49 14.411-14.493 14.411-8.004 0-14.494-6.453-14.494-14.411 0-9.092 9.674-18.497 13.216-21.637.729-.647 1.83-.65 2.564-.005 3.547 3.119 13.21 12.459 13.21 21.642h-.003Z" fill="#FFD250"/><path d="M93.991 131.812a.955.955 0 0 1-.873-.564c-.828-1.843-2.106-3.79-3.797-5.786a.95.95 0 0 1 .115-1.341.963.963 0 0 1 1.348.115c1.806 2.131 3.179 4.231 4.08 6.235a.947.947 0 0 1-.483 1.255.94.94 0 0 1-.39.083v.003ZM93.447 142.192a.957.957 0 0 1-.617-.223.948.948 0 0 1-.114-1.341c.935-1.105 1.359-2.922 1.434-3.473a.953.953 0 0 1 1.077-.813.95.95 0 0 1 .818 1.071c-.125.922-.677 3.038-1.866 4.441a.953.953 0 0 1-.732.338Z" fill="#fff"/></svg>
